svg/filled/exchange.svg

<svg width="24" height="24" viewBox="0 0 24 24" fill="none" xmlns="http://www.w3.org/2000/svg">
<path d="M19.0129 10.1509C18.8845 10.2793 18.8335 10.465 18.8685 10.6432C18.9548 11.0821 19 11.5358 19 12C19 15.866 15.8659 19 12 19C9.95373 19 8.11258 18.122 6.83265 16.7223C6.63126 16.502 6.28388 16.4792 6.07285 16.6902C5.89388 16.8692 5.87713 17.1554 6.04626 17.3437C7.51082 18.9743 9.63561 20 12 20C16.4182 20 20 16.4183 20 12C20 11.4423 19.9429 10.898 19.8343 10.3725C19.7553 9.99035 19.2888 9.87498 19.0129 10.1509Z" fill="black"/>
<path d="M17.7886 7.16113C17.9713 6.97841 17.9847 6.68491 17.8069 6.49737C16.349 4.9593 14.2865 4.00002 12 4.00002C7.58168 4.00002 3.99995 7.58174 3.99995 12C3.99995 12.6014 4.06632 13.1873 4.19212 13.7508C4.2763 14.1279 4.73818 14.2385 5.01137 13.9653C5.14173 13.8349 5.19197 13.6457 5.15356 13.4653C5.05292 12.9928 4.99995 12.5026 4.99995 12C4.99995 8.13402 8.13396 5.00002 12 5.00002C13.9782 5.00002 15.7647 5.82059 17.0378 7.13993C17.2414 7.35094 17.5813 7.36847 17.7886 7.16113Z" fill="black"/>
<path fill-rule="evenodd" clip-rule="evenodd" d="M18.125 5.00002C18.4011 5.00002 18.625 5.22387 18.625 5.50002V7.50002C18.625 7.77616 18.4011 8.00002 18.125 8.00002H16.125C15.8488 8.00002 15.625 7.77616 15.625 7.50002C15.625 7.22387 15.8488 7.00002 16.125 7.00002H17.625V5.50002C17.625 5.22387 17.8488 5.00002 18.125 5.00002Z" fill="black"/>
<path fill-rule="evenodd" clip-rule="evenodd" d="M5.5214 16.1465C5.61517 16.0527 5.74235 16 5.87495 16H7.87495C8.1511 16 8.37495 16.2239 8.37495 16.5C8.37495 16.7762 8.1511 17 7.87495 17H6.37495V18.5C6.37495 18.7762 6.1511 19 5.87495 19C5.59881 19 5.37495 18.7762 5.37495 18.5V16.5C5.37495 16.3674 5.42763 16.2402 5.5214 16.1465Z" fill="black"/>
<path d="M12.2242 12.3336V14.275C12.8859 14.2012 13.3617 13.8184 13.3617 13.2688C13.3617 12.711 12.8367 12.5031 12.2461 12.3391L12.2242 12.3336Z" fill="black"/>
<path d="M10.7914 10.6547C10.7914 11.2098 11.3602 11.4395 11.7758 11.557V9.74142C11.1742 9.82072 10.7914 10.1817 10.7914 10.6547Z" fill="black"/>
<path fill-rule="evenodd" clip-rule="evenodd" d="M12 17C14.7614 17 17 14.7614 17 12C17 9.23859 14.7614 7.00002 12 7.00002C9.23858 7.00002 7 9.23859 7 12C7 14.7614 9.23858 17 12 17ZM12.2242 15.5H11.7758V14.8903C10.7012 14.8192 10.0449 14.2176 9.98203 13.3563H10.682C10.7312 13.9195 11.2016 14.2149 11.7758 14.275V12.2051L11.557 12.1422C10.682 11.8906 10.1352 11.4422 10.1352 10.6875C10.1352 9.82892 10.8379 9.23283 11.7758 9.13712V8.50002H12.2242V9.12892C13.2141 9.19455 13.9141 9.80158 13.9414 10.6H13.2852C13.225 10.1024 12.8039 9.79064 12.2242 9.73322V11.6774L12.443 11.7375C13.0227 11.8906 14.018 12.2297 14.018 13.2797C14.018 14.1328 13.3727 14.811 12.2242 14.8903V15.5Z" fill="black"/>
</svg>

<svg xmlns="http://www.w3.org/2000/svg" viewBox="0 0 24 24" fill="currentColor">
  <path d="M19.013 10.15a.546.546 0 00-.145.493 7 7 0 01-12.036 6.08.528.528 0 00-.76-.033.475.475 0 00-.026.654 8 8 0 0013.788-6.971c-.079-.383-.545-.498-.821-.222zM17.789 7.161a.475.475 0 00.018-.664A8 8 0 004.192 13.75c.084.378.546.489.82.215.13-.13.18-.32.142-.5A7 7 0 0117.038 7.14a.528.528 0 00.75.021z"/>
  <path fill-rule="evenodd" d="M18.125 5a.5.5 0 01.5.5v2a.5.5 0 01-.5.5h-2a.5.5 0 110-1h1.5V5.5a.5.5 0 01.5-.5zM5.521 16.146A.5.5 0 015.875 16h2a.5.5 0 010 1h-1.5v1.5a.5.5 0 11-1 0v-2a.5.5 0 01.146-.354z" clip-rule="evenodd"/>
  <path d="M12.224 12.334v1.941c.662-.074 1.138-.457 1.138-1.006 0-.558-.525-.766-1.116-.93l-.022-.005zM10.791 10.655c0 .555.57.785.985.902V9.741c-.602.08-.985.44-.985.914z"/>
  <path fill-rule="evenodd" d="M12 17a5 5 0 100-10 5 5 0 000 10zm.224-1.5h-.448v-.61c-1.075-.07-1.731-.672-1.794-1.534h.7c.05.563.52.859 1.094.919v-2.07l-.219-.063c-.875-.251-1.422-.7-1.422-1.454 0-.86.703-1.455 1.64-1.55V8.5h.45v.629c.99.066 1.69.673 1.716 1.471h-.656c-.06-.498-.481-.81-1.06-.867v1.944l.218.06c.58.154 1.575.493 1.575 1.543 0 .853-.645 1.531-1.794 1.61v.61z" clip-rule="evenodd"/>
</svg>
